X:1
T:Marchioness of Townshend's, The
T:Marchioness of Townshend's, The
T:Alexander Walker
C:Alexander Walker
L:1/8
M:4/4
K:C
V:1 treble 
V:1
 E | E<Ac>A e>Ac>A | B<GD>G A,>GB,<G, | E<Ac>A c>de<a | g>ed>B A/A/A A2 :| E | A/A/A a<g a<A a>e | %7
 g<Gg>e d>GBc | A/A/A (a>g) a>c'b>a | g>ed>B A/A/A A>E | A/A/A a>^g a<A a>e | g>be>g d<g B>G | %12
 A>EC<A, c>de<a |{f} g>e{e}d>B A/A/A A || %14

